X: 272	% 74
T: Billie In The Low Ground
S: Viola Ruth "Pioneer Western Folk Tunes" 1948 p.27 #2
R: reel
Z: 2019 John Chambers <jc:trillian.mit.edu>
N: Handwritten "Quadrille" right of title.
M: 2/4
L: 1/16
K: C
V: 1 name="74"
|:\
C3D EGAB | cBcd cAGB | A2AB A2G2 | AGED CG,A,B, |\
C3D EGAB |
cBcd cAGB | A2Ac BGAB | cAGE C2z2 ::\
e"^^"g2a "^^"g2ag | eccd c2c2 |
ea2^g a2ba | =gecd c2c2 |\
eg2a g2ag | eccd c2G2 | A3c BGAB | cAGE C4 :|
